X: 35165
T: Ronnie Power's
R: jig
M: 6/8
K: Gminor
d|:BGG BcB|ABc AGF|GAB cde|fdB Adc|
BGG BcB|ABc AGF|GAB cde|dGG G2d:|
|:gfg agf|dcd fdf|bag fdc|dcd fdf|
gfg agf|dcd fdc|Bcd fdc|BGG G2d:|

